projects/js-packages/social-logos/src/svg/feed.svg

<svg enable-background="new 0 0 24 24" viewBox="0 0 24 24" xmlns="http://www.w3.org/2000/svg"><path d="m2 8.667v3.333c5.515 0 10 4.485 10 10h3.333c0-7.363-5.97-13.333-13.333-13.333zm0-6.667v3.333c9.19 0 16.667 7.477 16.667 16.667h3.333c0-11.045-8.955-20-20-20zm2.5 15c-1.382 0-2.5 1.12-2.5 2.5s1.118 2.5 2.5 2.5 2.5-1.12 2.5-2.5-1.118-2.5-2.5-2.5z"/></svg>

<?xml version="1.0" encoding="iso-8859-1"?>
<!-- Generator: Adobe Illustrator 19.2.1, SVG Export Plug-In . SVG Version: 6.00 Build 0)  -->
<svg version="1.1" xmlns="http://www.w3.org/2000/svg" xmlns:xlink="http://www.w3.org/1999/xlink" x="0px" y="0px"
	 viewBox="0 0 24 24" style="enable-background:new 0 0 24 24;" xml:space="preserve">
<g id="feed">
	<g id="Ellipse_1_1_" style="enable-background:new    ;">
		<path d="M2,8.667V12c5.515,0,10,4.485,10,10h3.333C15.333,14.637,9.363,8.667,2,8.667z M2,2v3.333
			c9.19,0,16.667,7.477,16.667,16.667H22C22,10.955,13.045,2,2,2z M4.5,17C3.118,17,2,18.12,2,19.5S3.118,22,4.5,22S7,20.88,7,19.5
			S5.882,17,4.5,17z"/>
	</g>
</g>
<g id="Layer_1">
</g>
</svg>
